src/components/common/icons/park.svg

<svg height="63" viewBox="0 0 41 63" width="41" xmlns="http://www.w3.org/2000/svg"><path d="m35.5828846 29.6794615c0-1.05.7059231-1.9723846 1.8512308-3.3874615 1.4086154-1.7333077 3.1596923-3.8914615 3.1596923-7.1173846 0-5.5569231-4.7153077-7.77-7.2482308-8.9605385-.5750769-.26976921-1.2260769-.57346152-1.4522307-.75276921-.554077-.43130769-1.1453077-1.41023077-1.772077-2.44407692-1.5992307-2.64761539-4.0190769-6.64569231-9.5776154-6.64569231-5.6473846 0-7.9703076 4.032-9.504923 6.69576923-.5912308 1.02415385-1.14692311 1.98853846-1.67192311 2.40853846-.22130769.17769231-.93207692.50561539-1.50230769.77053845-2.57653846 1.1889231-7.371 3.4052308-7.371 8.9282308 0 3.2259231 1.75107692 5.3840769 3.15807692 7.1173846 1.14853846 1.4150769 1.85123077 2.3374615 1.85123077 3.3874615 0 .7931539-.252 1.184077-.88038461 2.0676923-.8303077 1.1743847-1.96915385 2.7784616-1.96915385 5.7636924 0 4.8413076 4.06753846 7.8556153 8.00099997 10.7746153 3.9803077 2.9496923 7.7393077 5.7362308 7.7393077 10.130077v.0064615 4.2597692h4.3001539v-4.2662307c0-4.3938462 3.759-7.1803847 7.7393077-10.130077 3.9318461-2.919 8.001-5.9333077 8.001-10.7746153 0-2.9852308-1.1372308-4.5893077-1.9707693-5.7636924-.6267692-.8836153-.8803846-1.2745384-.8803846-2.0676923m-2.625 4.5521539c.6833077.966 1.1776154 1.6638461 1.1776154 3.2792308 0 2.6783076-2.9012308 4.8283846-6.2612308 7.3225384-1.7510769 1.2971539-3.5926154 2.6621539-5.1805384 4.2436154v-5.5197692l6.5423077-6.5455385-3.0385385-3.0385385-3.5037692 3.5053847v-8.2449231l7.9622307-7.9654616-3.0385384-3.0401538-4.9236923 4.9269231v-10.5694616h-4.3001539v10.5694616l-4.9236923-4.9269231-3.0385384 3.0401538 7.9622307 7.9654616v8.2449231l-3.5053846-3.5053847-3.0369231 3.0385385 6.5423077 6.5455385v5.5197692c-1.5895384-1.5814615-3.4294615-2.9464615-5.1789231-4.2436154-3.36161534-2.4941538-6.26446149-4.6442308-6.26446149-7.3225384 0-1.6153847.49430769-2.3132308 1.17761538-3.2792308.74630769-1.05 1.67192308-2.3584616 1.67192308-4.5521539 0-2.6298461-1.49261539-4.4697692-2.81076923-6.0932307-1.17923077-1.4554616-2.19853846-2.709-2.19853846-4.4116154 0-1.5733846.36023077-2.94 4.87684615-5.0286923.94176927-.4361539 1.75592307-.8109231 2.38430767-1.3149231 1.1566154-.9256154 1.9093846-2.2340769 2.7073846-3.61684615 1.6299231-2.82853847 2.8333847-4.54407693 5.7846923-4.54407693 2.9254616 0 4.1806154 1.72523077 5.901 4.57153846.8367693 1.37953842 1.6283077 2.68800002 2.801077 3.60392312.609.4765384 1.3811538.84 2.2728461 1.2583846 2.7962308 1.3149231 4.7766923 2.4456923 4.7766923 5.0706923 0 1.7026154-1.0176923 2.9561538-2.1985384 4.4116154-1.3149231 1.6234615-2.8107693 3.4633846-2.8107693 6.0932307 0 2.1936923.9272308 3.5021539 1.6719231 4.5521539" fill="#010202" fill-rule="evenodd"/></svg>

<?xml version="1.0" encoding="UTF-8"?>
<svg width="41px" height="63px" viewBox="0 0 41 63" version="1.1" xmlns="http://www.w3.org/2000/svg" xmlns:xlink="http://www.w3.org/1999/xlink">
    <!-- Generator: Sketch 52.5 (67469) - http://www.bohemiancoding.com/sketch -->
    <title>Icons/.park</title>
    <desc>Created with Sketch.</desc>
    <g id="Vapaaehtoisalusta-Layouts" stroke="none" stroke-width="1" fill="none" fill-rule="evenodd">
        <g id="HKI-Ikonit" transform="translate(-936.000000, -373.000000)" fill="#010202">
            <g id="Icons/.park" transform="translate(936.000000, 373.000000)">
                <path d="M35.5828846,29.6794615 C35.5828846,28.6294615 36.2888077,27.7070769 37.4341154,26.292 C38.8427308,24.5586923 40.5938077,22.4005385 40.5938077,19.1746154 C40.5938077,13.6176923 35.8785,11.4046154 33.3455769,10.2140769 C32.7705,9.94430769 32.1195,9.64061538 31.8933462,9.46130769 C31.3392692,9.03 30.7480385,8.05107692 30.1212692,7.01723077 C28.5220385,4.36961538 26.1021923,0.371538462 20.5436538,0.371538462 C14.8962692,0.371538462 12.5733462,4.40353846 11.0387308,7.06730769 C10.4475,8.09146154 9.89180769,9.05584615 9.36680769,9.47584615 C9.1455,9.65353846 8.43473077,9.98146154 7.8645,10.2463846 C5.28796154,11.4353077 0.4935,13.6516154 0.4935,19.1746154 C0.4935,22.4005385 2.24457692,24.5586923 3.65157692,26.292 C4.80011538,27.7070769 5.50280769,28.6294615 5.50280769,29.6794615 C5.50280769,30.4726154 5.25080769,30.8635385 4.62242308,31.7471538 C3.79211538,32.9215385 2.65326923,34.5256154 2.65326923,37.5108462 C2.65326923,42.3521538 6.72080769,45.3664615 10.6542692,48.2854615 C14.6345769,51.2351538 18.3935769,54.0216923 18.3935769,58.4155385 L18.3935769,58.422 L18.3935769,62.6817692 L22.6937308,62.6817692 L22.6937308,58.4155385 C22.6937308,54.0216923 26.4527308,51.2351538 30.4330385,48.2854615 C34.3648846,45.3664615 38.4340385,42.3521538 38.4340385,37.5108462 C38.4340385,34.5256154 37.2968077,32.9215385 36.4632692,31.7471538 C35.8365,30.8635385 35.5828846,30.4726154 35.5828846,29.6794615 M32.9578846,34.2316154 C33.6411923,35.1976154 34.1355,35.8954615 34.1355,37.5108462 C34.1355,40.1891538 31.2342692,42.3392308 27.8742692,44.8333846 C26.1231923,46.1305385 24.2816538,47.4955385 22.6937308,49.077 L22.6937308,43.5572308 L29.2360385,37.0116923 L26.1975,33.9731538 L22.6937308,37.4785385 L22.6937308,29.2336154 L30.6559615,21.2681538 L27.6174231,18.228 L22.6937308,23.1549231 L22.6937308,12.5854615 L18.3935769,12.5854615 L18.3935769,23.1549231 L13.4698846,18.228 L10.4313462,21.2681538 L18.3935769,29.2336154 L18.3935769,37.4785385 L14.8881923,33.9731538 L11.8512692,37.0116923 L18.3935769,43.5572308 L18.3935769,49.077 C16.8040385,47.4955385 14.9641154,46.1305385 13.2146538,44.8333846 C9.85303846,42.3392308 6.95019231,40.1891538 6.95019231,37.5108462 C6.95019231,35.8954615 7.4445,35.1976154 8.12780769,34.2316154 C8.87411538,33.1816154 9.79973077,31.8731538 9.79973077,29.6794615 C9.79973077,27.0496154 8.30711538,25.2096923 6.98896154,23.5862308 C5.80973077,22.1307692 4.79042308,20.8772308 4.79042308,19.1746154 C4.79042308,17.6012308 5.15065385,16.2346154 9.66726923,14.1459231 C10.6090385,13.7097692 11.4231923,13.335 12.0515769,12.831 C13.2081923,11.9053846 13.9609615,10.5969231 14.7589615,9.21415385 C16.3888846,6.38561538 17.5923462,4.67007692 20.5436538,4.67007692 C23.4691154,4.67007692 24.7242692,6.39530769 26.4446538,9.24161538 C27.2814231,10.6211538 28.0729615,11.9296154 29.2457308,12.8455385 C29.8547308,13.3220769 30.6268846,13.6855385 31.5185769,14.1039231 C34.3148077,15.4188462 36.2952692,16.5496154 36.2952692,19.1746154 C36.2952692,20.8772308 35.2775769,22.1307692 34.0967308,23.5862308 C32.7818077,25.2096923 31.2859615,27.0496154 31.2859615,29.6794615 C31.2859615,31.8731538 32.2131923,33.1816154 32.9578846,34.2316154" id="Fill-64"></path>
            </g>
        </g>
    </g>
</svg>
